icons/qr-code-line.svg

<svg width="24" height="24" fill="none" xmlns="http://www.w3.org/2000/svg"><g clip-path="url(#a)"><path d="M16 17v-1h-3v-3h3v2h2v2h-1v2h-2v2h-2v-3h2v-1h1Zm5 4h-4v-2h2v-2h2v4ZM3 3h8v8H3V3Zm2 2v4h4V5H5Zm8-2h8v8h-8V3Zm2 2v4h4V5h-4ZM3 13h8v8H3v-8Zm2 2v4h4v-4H5Zm13-2h3v2h-3v-2ZM6 6h2v2H6V6Zm0 10h2v2H6v-2ZM16 6h2v2h-2V6Z" /></g><defs><clipPath id="a"><path fill="#fff" d="M0 0h24v24H0z"/></clipPath></defs></svg>

<svg xmlns="http://www.w3.org/2000/svg" width="24" height="24" fill="none"><g clip-path="url(#a)"><g><path fill="#121212" d="M16 17V16H13V13H16V15H18V17H17V19H15V21H13V18H15V17H16ZM21 21H17V19H19V17H21V21ZM3 3H11V11H3V3ZM5 5V9H9V5H5ZM13 3H21V11H13V3ZM15 5V9H19V5H15ZM3 13H11V21H3V13ZM5 15V19H9V15H5ZM18 13H21V15H18V13ZM6 6H8V8H6V6ZM6 16H8V18H6V16ZM16 6H18V8H16V6Z"/></g></g><defs><clipPath id="a"><rect width="24" height="24" fill="white"/></clipPath></defs></svg>
